img/dark/hide.svg

<svg height="16" viewBox="0 0 16 16" width="16" xmlns="http://www.w3.org/2000/svg">
  <path
    d="m8 4c3.279319 0 6 1.73134248 6 4 0 2.2686575-2.720681 4-6 4-3.27931896 0-6-1.7313425-6-4 0-2.26865752 2.72068104-4 6-4zm0 1c-2.79581328 0-5 1.40266427-5 3s2.20418672 3 5 3c2.7958133 0 5-1.40266427 5-3s-2.2041867-3-5-3zm0 1c1.1045695 0 2 .8954305 2 2s-.8954305 2-2 2-2-.8954305-2-2 .8954305-2 2-2z"
    fill="#d6d6d6" />
</svg>

<?xml version="1.0" encoding="UTF-8"?>
<svg width="16px" height="16px" viewBox="0 0 16 16" version="1.1" xmlns="http://www.w3.org/2000/svg" xmlns:xlink="http://www.w3.org/1999/xlink">
    <title>hide</title>
    <g id="hide" stroke="none" stroke-width="1" fill="none" fill-rule="evenodd">
        <path d="M8,4 C11.279319,4 14,5.73134248 14,8 C14,10.2686575 11.279319,12 8,12 C4.72068104,12 2,10.2686575 2,8 C2,5.73134248 4.72068104,4 8,4 Z M8,5 C5.20418672,5 3,6.40266427 3,8 C3,9.59733573 5.20418672,11 8,11 C10.7958133,11 13,9.59733573 13,8 C13,6.40266427 10.7958133,5 8,5 Z M8,6 C9.1045695,6 10,6.8954305 10,8 C10,9.1045695 9.1045695,10 8,10 C6.8954305,10 6,9.1045695 6,8 C6,6.8954305 6.8954305,6 8,6 Z" id="Combined-Shape" fill="#D6D6D6" fill-rule="nonzero"></path>
    </g>
</svg>
